src/images/pages/cashier/usdc-icon.svg

<svg width="72" height="45" viewBox="0 0 72 45" fill="none" xmlns="http://www.w3.org/2000/svg">
<path d="M25.9683 18.6874H26.4599C26.5857 18.6874 26.6873 18.789 26.6873 18.9139V23.3179C26.6873 24.7101 27.4414 25.5891 28.8443 25.5891C30.2473 25.5891 31.0014 24.7101 31.0014 23.3188V18.9148C31.0014 18.789 31.1029 18.6874 31.2288 18.6874H31.7204C31.8462 18.6874 31.9478 18.789 31.9478 18.9139V23.3305C31.9478 25.2251 30.9079 26.433 28.8443 26.433C26.7799 26.433 25.7409 25.2134 25.7409 23.3412V18.9148C25.7382 18.789 25.8398 18.6883 25.9683 18.6883V18.6874ZM33.3975 24.6867C33.4694 24.5932 33.6096 24.5851 33.6941 24.666C34.2037 25.1612 34.9658 25.5891 35.932 25.5891C37.2892 25.5891 37.7233 24.8584 37.7233 24.2769C37.7233 23.3619 36.8002 23.1121 35.7954 22.8388C34.5758 22.518 33.2159 22.1773 33.2159 20.6818C33.2159 19.4262 34.3349 18.5706 35.8314 18.5706C36.9054 18.5706 37.7547 18.8995 38.3812 19.4783C38.471 19.5601 38.48 19.7003 38.4009 19.7929L38.1043 20.1569C38.0315 20.2468 37.8976 20.2531 37.8131 20.1749C37.2568 19.6536 36.5234 19.4145 35.7613 19.4145C34.8472 19.4145 34.1974 19.9071 34.1974 20.6225C34.1974 21.3882 35.0764 21.6156 36.0462 21.8772C37.2892 22.2097 38.7038 22.5962 38.7038 24.1951C38.7038 25.3006 37.9498 26.4303 35.8979 26.4303C34.6693 26.4303 33.7435 25.9971 33.1144 25.368C33.0335 25.2871 33.0245 25.1559 33.0964 25.0651L33.3975 24.6876V24.6867ZM39.8309 18.9139C39.8309 18.7881 39.9324 18.6874 40.0574 18.6874H42.4301C44.7912 18.6874 46.3344 20.3412 46.3344 22.4982C46.3344 24.666 44.7939 26.2964 42.4301 26.2964H40.0574C39.9324 26.2964 39.8309 26.1948 39.8309 26.0699V18.9139ZM42.4328 25.4524C44.2816 25.4524 45.3529 24.1277 45.3529 22.4973C45.3529 20.8526 44.3139 19.5314 42.4328 19.5314H40.7791V25.4524H42.4328ZM55.8038 23.5372C55.8038 21.9383 56.8553 20.6494 58.5315 20.6494C60.2077 20.6494 61.2593 21.9383 61.2593 23.5372C61.2593 25.1352 60.2077 26.4366 58.5315 26.4366C56.8544 26.4366 55.8038 25.1325 55.8038 23.5372ZM60.3569 23.5372C60.3569 22.4191 59.7071 21.4143 58.5315 21.4143C57.355 21.4143 56.6944 22.4191 56.6944 23.5372C56.6944 24.666 57.355 25.6709 58.5315 25.6709C59.7071 25.6709 60.356 24.666 60.356 23.5372H60.3569ZM62.0799 19.2806C62.0799 18.9607 62.3423 18.7099 62.6506 18.7099C62.9705 18.7099 63.233 18.9607 63.233 19.2806C63.233 19.6015 62.9705 19.863 62.6506 19.863C62.3423 19.863 62.0799 19.5979 62.0799 19.2806ZM62.4555 20.7861H62.8546C62.9795 20.7861 63.0811 20.8876 63.0811 21.0125V26.0699C63.0811 26.1948 62.9795 26.2964 62.8546 26.2964H62.4555C62.3297 26.2964 62.2282 26.1948 62.2282 26.0699V21.0125C62.2282 20.8876 62.3306 20.7861 62.4555 20.7861ZM68.0126 22.6923C68.0126 21.7235 67.521 21.4143 66.7813 21.4143C66.109 21.4143 65.4691 21.825 65.1483 22.2708V26.0699C65.1483 26.1948 65.0467 26.2964 64.9209 26.2964H64.5227C64.3969 26.2964 64.2953 26.1948 64.2953 26.0699V21.0125C64.2953 20.8876 64.3969 20.7861 64.5227 20.7861H64.9209C65.0467 20.7861 65.1483 20.8876 65.1483 21.0125V21.5833C65.5347 21.1267 66.2897 20.6485 67.1103 20.6485C68.2634 20.6485 68.8682 21.2309 68.8682 22.4281V26.0663C68.8682 26.1921 68.7667 26.2937 68.6418 26.2937H68.2427C68.1169 26.2937 68.0153 26.1921 68.0153 26.0663V22.6923H68.0126ZM48.4968 22.4982C48.4968 20.1578 50.2206 18.5625 52.3777 18.5625C53.6557 18.5625 54.5527 19.1188 55.1576 19.8819C55.233 19.9772 55.207 20.1201 55.0991 20.1812L54.674 20.4167C54.5778 20.4724 54.4556 20.4463 54.3864 20.3618C53.9343 19.8028 53.2036 19.4091 52.3777 19.4091C50.7446 19.4091 49.4782 20.6881 49.4782 22.5009C49.4782 24.3038 50.7446 25.5927 52.3777 25.5927C53.2072 25.5927 53.9379 25.2089 54.3855 24.6409C54.4556 24.5537 54.5751 24.5303 54.674 24.5824L55.1054 24.8188C55.216 24.8799 55.242 25.0255 55.1629 25.1217C54.5338 25.8901 53.6557 26.4375 52.3768 26.4375C50.2197 26.4339 48.4968 24.8386 48.4968 22.4982Z" fill="#4D4E50"/>
<path d="M12.375 31.5C17.3456 31.5 21.375 27.4706 21.375 22.5C21.375 17.5294 17.3456 13.5 12.375 13.5C7.40444 13.5 3.375 17.5294 3.375 22.5C3.375 27.4706 7.40444 31.5 12.375 31.5Z" fill="#2775CA"/>
<path d="M10.6882 28.5124C10.6882 28.7238 10.5226 28.8447 10.3177 28.7804C7.59665 27.9119 5.62317 25.3609 5.62317 22.35C5.62317 19.3391 7.59556 16.787 10.3177 15.9185C10.5226 15.8553 10.6882 15.9751 10.6882 16.1876V16.7096C10.6882 16.8513 10.5792 17.0169 10.4452 17.0627C8.29189 17.8527 6.74885 19.921 6.74885 22.3467C6.74885 24.7714 8.29189 26.8397 10.4452 27.6297C10.5792 27.6798 10.6882 27.8422 10.6882 27.9828V28.5124Z" fill="white"/>
<path d="M12.9363 26.5672C12.9363 26.723 12.8099 26.8505 12.6541 26.8505H12.0929C11.9381 26.8505 11.8106 26.723 11.8106 26.5672V25.678C10.5825 25.5123 9.98207 24.8236 9.8197 23.8887C9.79137 23.7296 9.91886 23.5846 10.0812 23.5846H10.7242C10.8582 23.5846 10.9704 23.6805 10.9988 23.8146C11.1186 24.3725 11.4401 24.7997 12.4252 24.7997C13.1521 24.7997 13.6675 24.3932 13.6675 23.7862C13.6675 23.1792 13.3635 22.9493 12.2977 22.7728C10.7242 22.5614 9.9788 22.0852 9.9788 20.8494C9.9788 19.897 10.698 19.156 11.8139 18.9969V18.1251C11.8139 17.9693 11.9414 17.8418 12.0972 17.8418H12.6573C12.8132 17.8418 12.9407 17.9693 12.9407 18.1251V19.0209C13.8473 19.1843 14.4227 19.6987 14.6101 20.553C14.645 20.7165 14.5175 20.8669 14.3518 20.8669H13.7601C13.6326 20.8669 13.5269 20.783 13.4877 20.6598C13.3297 20.115 12.9417 19.8828 12.2672 19.8828C11.5229 19.8828 11.1372 20.2425 11.1372 20.747C11.1372 21.281 11.3562 21.549 12.4993 21.7147C14.0467 21.9261 14.8433 22.3674 14.8433 23.6838C14.8433 24.6831 14.1023 25.4905 12.9417 25.678V26.5672H12.9363Z" fill="white"/>
<path d="M14.4336 28.7795C14.2287 28.8438 14.0631 28.7228 14.0631 28.5114V27.9884C14.0631 27.8336 14.1579 27.6887 14.3061 27.6364C16.4594 26.8452 18.0013 24.777 18.0013 22.3523C18.0013 19.9277 16.4593 17.8594 14.3072 17.0683C14.172 17.0192 14.0631 16.8569 14.0631 16.7152V16.1932C14.0631 15.9818 14.2287 15.8576 14.4336 15.9252C17.1546 16.7937 19.127 19.3447 19.127 22.3556C19.1237 25.36 17.1546 27.9077 14.4336 28.7795Z" fill="white"/>
</svg>

<svg width="72" height="45" fill="none" xmlns="http://www.w3.org/2000/svg"><path d="M25.968 18.687h.492c.126 0 .227.102.227.227v4.404c0 1.392.754 2.271 2.157 2.271s2.157-.879 2.157-2.27v-4.404c0-.126.102-.228.228-.228h.491c.126 0 .228.102.228.227v4.416c0 1.895-1.04 3.103-3.104 3.103s-3.103-1.22-3.103-3.092v-4.426a.223.223 0 01.227-.227zm7.43 6a.201.201 0 01.296-.021c.51.495 1.272.923 2.238.923 1.357 0 1.791-.73 1.791-1.312 0-.915-.923-1.165-1.928-1.438-1.22-.321-2.58-.662-2.58-2.157 0-1.256 1.12-2.111 2.616-2.111 1.074 0 1.924.328 2.55.907.09.082.099.222.02.315l-.297.364a.2.2 0 01-.29.018c-.557-.521-1.29-.76-2.053-.76-.914 0-1.564.492-1.564 1.207 0 .766.88.994 1.85 1.255 1.242.333 2.657.72 2.657 2.318 0 1.106-.754 2.235-2.806 2.235-1.229 0-2.155-.433-2.784-1.062a.23.23 0 01-.018-.303l.302-.377v-.001zm6.433-5.773c0-.126.101-.227.226-.227h2.373c2.361 0 3.904 1.654 3.904 3.811 0 2.168-1.54 3.798-3.904 3.798h-2.373a.227.227 0 01-.226-.226v-7.156zm2.602 6.538c1.849 0 2.92-1.324 2.92-2.955 0-1.644-1.04-2.966-2.92-2.966h-1.654v5.921h1.654zm13.37-1.915c0-1.599 1.052-2.888 2.729-2.888 1.676 0 2.727 1.29 2.727 2.888 0 1.598-1.051 2.9-2.727 2.9-1.678 0-2.728-1.305-2.728-2.9zm4.554 0c0-1.118-.65-2.123-1.825-2.123-1.177 0-1.838 1.005-1.838 2.123 0 1.129.661 2.134 1.837 2.134s1.825-1.005 1.825-2.134zm1.723-4.256c0-.32.262-.571.57-.571.32 0 .583.25.583.57 0 .322-.262.583-.582.583a.584.584 0 01-.571-.582zm.376 1.505h.399c.125 0 .226.102.226.226v5.058a.227.227 0 01-.226.226h-.4a.227.227 0 01-.227-.226v-5.058c0-.124.103-.226.227-.226zm5.557 1.906c0-.968-.492-1.278-1.232-1.278-.672 0-1.312.411-1.633.857v3.799a.227.227 0 01-.227.226h-.398a.227.227 0 01-.228-.226v-5.058c0-.124.102-.226.228-.226h.398c.126 0 .227.102.227.226v.571c.387-.456 1.142-.934 1.962-.934 1.153 0 1.758.582 1.758 1.78v3.637a.227.227 0 01-.226.228h-.4a.227.227 0 01-.227-.228v-3.374h-.002zm-19.516-.194c0-2.34 1.724-3.936 3.88-3.936 1.279 0 2.176.557 2.78 1.32a.201.201 0 01-.058.3l-.425.235a.227.227 0 01-.288-.055 2.599 2.599 0 00-2.008-.953c-1.633 0-2.9 1.28-2.9 3.092 0 1.803 1.267 3.092 2.9 3.092.83 0 1.56-.384 2.008-.952a.23.23 0 01.288-.059l.431.237a.2.2 0 01.058.303c-.63.768-1.507 1.316-2.786 1.316-2.157-.004-3.88-1.6-3.88-3.94z" fill="#4D4E50"/><path d="M12.375 31.5a9 9 0 100-18 9 9 0 000 18z" fill="#2775CA"/><path d="M10.688 28.512c0 .212-.165.333-.37.268a6.753 6.753 0 010-12.862c.205-.063.37.057.37.27v.522c0 .141-.109.307-.243.353a5.636 5.636 0 00-3.696 5.284 5.636 5.636 0 003.696 5.283.41.41 0 01.243.353v.53z" fill="#fff"/><path d="M12.936 26.567a.283.283 0 01-.282.284h-.561a.284.284 0 01-.282-.284v-.889c-1.229-.166-1.829-.854-1.991-1.79a.262.262 0 01.261-.303h.643c.134 0 .246.095.275.23.12.557.441.985 1.426.985.727 0 1.242-.407 1.242-1.014s-.303-.837-1.37-1.013c-1.573-.212-2.318-.688-2.318-1.924 0-.952.719-1.693 1.835-1.852v-.872c0-.156.127-.283.283-.283h.56c.156 0 .284.127.284.283v.896c.906.163 1.482.678 1.67 1.532a.261.261 0 01-.26.314h-.59a.286.286 0 01-.273-.207c-.158-.545-.546-.777-1.22-.777-.745 0-1.13.36-1.13.864 0 .534.218.802 1.361.968 1.548.211 2.344.652 2.344 1.969 0 1-.74 1.806-1.901 1.994v.89h-.006z" fill="#fff"/><path d="M14.434 28.78c-.205.064-.37-.057-.37-.269v-.523c0-.154.094-.3.242-.352a5.637 5.637 0 003.695-5.284 5.638 5.638 0 00-3.694-5.284.406.406 0 01-.244-.353v-.522c0-.211.166-.335.37-.268a6.752 6.752 0 014.694 6.43 6.758 6.758 0 01-4.693 6.424z" fill="#fff"/></svg>
